app/dist/images/icons/yt.svg

<svg width="22" height="16" viewBox="0 0 22 16" fill="none" xmlns="http://www.w3.org/2000/svg">
<path d="M21.142 1.37333C20.35 0.397334 18.8815 0 16.082 0H5.918C3.0525 0 1.562 0.424 0.77 1.46267C-8.19564e-08 2.476 0 3.96667 0 6.032V9.968C0 13.968 0.91575 16 5.918 16H16.082C18.5103 16 19.8564 15.6493 20.7267 14.7867C21.6191 13.9053 22 12.464 22 9.968V6.032C22 3.85467 21.9409 2.35333 21.142 1.37333ZM14.124 8.544L9.50813 11.0373C9.40089 11.0951 9.27942 11.1235 9.15681 11.1192C9.03419 11.115 8.9151 11.0784 8.81238 11.0133C8.70612 10.9447 8.61918 10.8514 8.5594 10.742C8.49962 10.6326 8.4689 10.5105 8.47 10.3867V5.416C8.47 5.16 8.59925 4.92267 8.811 4.78933C8.91367 4.72414 9.03278 4.68745 9.15542 4.68322C9.27806 4.67899 9.39956 4.70738 9.50675 4.76533L14.1226 7.24267C14.3564 7.368 14.5049 7.61867 14.5049 7.892C14.5068 8.02369 14.4726 8.15351 14.4056 8.2681C14.3387 8.38269 14.2415 8.47793 14.124 8.544Z" fill="white"/>
</svg>

<svg width="22" height="16" fill="none" xmlns="http://www.w3.org/2000/svg"><path d="M21.142 1.373C20.35.397 18.882 0 16.082 0H5.918C3.053 0 1.562.424.77 1.463 0 2.476 0 3.967 0 6.032v3.936C0 13.968.916 16 5.918 16h10.164c2.428 0 3.774-.35 4.645-1.213.892-.882 1.273-2.323 1.273-4.819V6.032c0-2.177-.06-3.679-.858-4.659zm-7.018 7.171l-4.616 2.493a.69.69 0 01-.696-.024.754.754 0 01-.253-.271.727.727 0 01-.089-.355V5.416a.74.74 0 01.341-.627.687.687 0 01.696-.024l4.616 2.478a.736.736 0 01.382.649.724.724 0 01-.1.376.752.752 0 01-.281.276z" fill="#fff"/></svg>
